X: 1
T: Hambo med bakmes fr\aan Hede
O: efter Bengt Jonsson
Z: John Chambers <jc@trillian.mit.edu>
N: Bengt sometimes played D, sometimes F for the first note of the third line.
M: 3/4
L: 1/8
Q: 1/4=112
K: Dm
V: 1
|: "Dm"{A}fg/f/ e2 d2 | "A7"^cA/c/ d2 (eg) \
| "Dm"(f/e/)f/g/ (af) ed |1,3 "A7"(^c/d/)e/c/ A3 g- :|2,4 "A7"(^c/d/)e/c/ "Dm"d4 :|
|: "F"{A}a2 c2 ab/a/ | "C7"ga/g/ B2 "A7"g2 \
| "Dm"fa/f/ "A7"eg/e/ "Dm"d(e/f/) | "A7"(e/g/)(e/^c/) "Dm"dA F"(C7)"E |
| "Dm/F"[DF]a "F"c2 ab/a/ | "C7"ga/g/ B2 "A7"g2 \
| "Dm"fa/f/ "A7"eg/e/ "Dm"d(e/f/) | "A7"(e/g/)(e/^c/) "Dm"d4 :|
V: 2
|: de/d/ A2 B2 | ~AE/A/ A2 ^c-e \
| d/-^c/d/e/ f-d ~^cA |1,3 A^c/A/ E4 :|2,4 A^c/A/ A4 :|
|: {A}f2 A2 fg/f/ | ef/e/ G2 ^c2 \
| df/d/ ^ce/c/ Ac/-d/ | ^c/-e/c/-A/ FF DA, |
| A,f A2 fg/f/ | ef/-e/ G2 e2 \
| df/d/ ^ce/c/ A^c/-d/ | ^c/-e/c/A/ {E}F4 :|
